apps/web/src/assets/svgs/add.svg

<?xml version="1.0" encoding="UTF-8" standalone="no"?>
<!-- Created with Inkscape (http://www.inkscape.org/) -->

<svg
   width="8mm"
   height="8mm"
   viewBox="0 0 8 8"
   version="1.1"
   id="svg1"
   inkscape:version="1.3.2 (091e20ef0f, 2023-11-25)"
   sodipodi:docname="add_flat.svg"
   xmlns:inkscape="http://www.inkscape.org/namespaces/inkscape"
   xmlns:sodipodi="http://sodipodi.sourceforge.net/DTD/sodipodi-0.dtd"
   xmlns="http://www.w3.org/2000/svg"
   xmlns:svg="http://www.w3.org/2000/svg">
  <sodipodi:namedview
     id="namedview1"
     pagecolor="#ffffff"
     bordercolor="#000000"
     borderopacity="0.25"
     inkscape:showpageshadow="2"
     inkscape:pageopacity="0.0"
     inkscape:pagecheckerboard="0"
     inkscape:deskcolor="#d1d1d1"
     inkscape:document-units="mm"
     inkscape:zoom="6.300997"
     inkscape:cx="-19.996836"
     inkscape:cy="28.249498"
     inkscape:window-width="2560"
     inkscape:window-height="1515"
     inkscape:window-x="0"
     inkscape:window-y="1415"
     inkscape:window-maximized="1"
     inkscape:current-layer="layer1" />
  <defs
     id="defs1" />
  <g
     inkscape:label="Capa 1"
     inkscape:groupmode="layer"
     id="layer1"
     transform="translate(-179.40903,-60.52282)">
    <g
       id="g475-4"
       transform="matrix(0.96762994,0,0,0.96762994,135.04664,58.710902)">
      <g
         id="g474-9">
        <path
           id="rect472-2"
           style="color:#000000;fill:#000000;stroke-linejoin:round;-inkscape-stroke:none"
           d="M 46.83604 2.1230022 C 46.43201 2.1230022 46.097446 2.4570313 46.097446 2.8610615 L 46.097446 9.1505873 C 46.097446 9.5546174 46.43201 9.8907828 46.83604 9.8907828 L 53.125031 9.8907828 C 53.529062 9.8907828 53.863091 9.5546174 53.863091 9.1505873 L 53.863091 2.8610615 C 53.863091 2.4570313 53.529062 2.1230022 53.125031 2.1230022 L 46.83604 2.1230022 z M 46.83604 2.7227421 L 53.125031 2.7227421 C 53.207041 2.7227421 53.263885 2.7790528 53.263885 2.8610615 L 53.263885 9.1505873 C 53.263885 9.2325962 53.207043 9.2889066 53.125031 9.2889066 L 46.83604 9.2889066 C 46.75403 9.2889066 46.697186 9.2325961 46.697186 9.1505873 L 46.697186 2.8610615 C 46.697186 2.7790526 46.754029 2.7227421 46.83604 2.7227421 z M 49.980536 4.3142159 A 0.25 0.25 0 0 0 49.730599 4.5646861 L 49.730599 5.7556212 L 48.53913 5.7556212 A 0.25 0.25 0 0 0 48.289194 6.0060914 A 0.25 0.25 0 0 0 48.53913 6.2560275 L 49.730599 6.2560275 L 49.730599 7.4474967 A 0.25 0.25 0 0 0 49.980536 7.6974328 A 0.25 0.25 0 0 0 50.230472 7.4474967 L 50.230472 6.2560275 L 51.421941 6.2560275 A 0.25 0.25 0 0 0 51.671877 6.0060914 A 0.25 0.25 0 0 0 51.421941 5.7556212 L 50.230472 5.7556212 L 50.230472 4.5646861 A 0.25 0.25 0 0 0 49.980536 4.3142159 z " />
      </g>
    </g>
  </g>
</svg>

<svg xmlns="http://www.w3.org/2000/svg" width="8mm" height="8mm" viewBox="0 0 8 8"><path d="M46.836 2.123a.743.743 0 0 0-.739.738v6.29c0 .404.335.74.739.74h6.289a.745.745 0 0 0 .738-.74V2.86a.743.743 0 0 0-.738-.738zm0 .6h6.289c.082 0 .139.056.139.138v6.29a.132.132 0 0 1-.139.138h-6.289a.132.132 0 0 1-.139-.138V2.86c0-.082.057-.138.139-.138m3.145 1.591a.25.25 0 0 0-.25.25v1.192h-1.192a.25.25 0 0 0-.25.25.25.25 0 0 0 .25.25h1.192v1.191a.25.25 0 0 0 .25.25.25.25 0 0 0 .25-.25V6.256h1.19a.25.25 0 0 0 .25-.25.25.25 0 0 0-.25-.25h-1.19V4.565a.25.25 0 0 0-.25-.25" style="color:#000;fill:#000;stroke-linejoin:round;-inkscape-stroke:none" transform="matrix(.96763 0 0 .96763 -44.362 -1.812)"/></svg>
